public/avatar/body/51.svg

<svg xmlns:xlink="http://www.w3.org/1999/xlink" height="82" width="84.85" xmlns="http://www.w3.org/2000/svg"><g transform="translate(37.4 42.25)"><use height="38" transform="translate(-11.95 -17.45)" width="32.05" xlink:href="#a"/><use height="38.95" transform="translate(-12.45 -17.95)" width="33.05" xlink:href="#b"/><use height="20.7" transform="translate(-11.9 -.3)" width="16.55" xlink:href="#c"/><use height="20.7" transform="matrix(-1 0 0 1 20.3 -.3)" width="16.55" xlink:href="#c"/></g><defs><use height="38" width="32.05" xlink:href="#d" id="a"/><use height="38.95" width="33.05" xlink:href="#e" id="b"/><use height="20.7" width="16.55" xlink:href="#f" id="c"/><path d="M27.35 7.4q2.15 4.15 3.55 8.75 1.45 4.7 1.15 9.5-.35 4.95-4.2 8.1-3.8 3.2-8.75 4.05l-2.6.2q-3.6 0-7.05-1.15-4.65-1.6-7.1-5.5Q-.2 27.4.05 23q.2-4.4 2-9.3Q3.85 8.75 7 5.05 10.1 1.3 14.7.1l1.8-.1q1.9.05 3.7.8 4.75 2.05 7.15 6.6" fill="#fff" fill-rule="evenodd" transform="translate(-.05)" id="d"/><path d="M27.35 7.4Q24.95 2.85 20.2.8 17.55-.3 14.7.1 10.1 1.3 7 5.05q-3.15 3.7-4.95 8.65-1.8 4.9-2 9.3-.25 4.4 2.3 8.35 2.45 3.9 7.1 5.5 4.65 1.55 9.65.95 4.95-.85 8.75-4.05 3.85-3.15 4.2-8.1.3-4.8-1.15-9.5-1.4-4.6-3.55-8.75Z" fill="none" stroke="#000" stroke-linecap="round" stroke-linejoin="round" transform="translate(.45 .5)" id="e"/><g id="f"><path d="m16.05 11 .05-.05.1-.15v3l-.95-.2-.65.25-2.5.75-.3.2-3.55.9v.05l.25.15.1.1h.05q3.7.65 7.4-.05l.15.05v4.2Q.15 19.4.05 5.1L9.9 6.85q4.2.55 6.15 4.15m-6.7 4.75v.05l-.25-.05h.25" fill="#3dc9fe" fill-rule="evenodd" transform="translate(0 .5)"/><path d="m16.2 16-.15-.05q-3.7.7-7.4.05H8.6l-.1-.1-.25-.15v-.05l3.55-.9.3-.2 2.5-.75.65-.25.95.2V16m-6.85-.25H9.1l.25.05v-.05" fill="#02a4cc" fill-rule="evenodd" transform="translate(0 .5)"/><path d="m16.1 11.45-.05.05" fill="none" stroke="#fd7b7b" stroke-linecap="round" stroke-linejoin="round" stroke-width=".05"/><path d="M7.9 15.45q4.6-.15 7.85-1.95" fill="none" stroke="#028ea2" stroke-linecap="round" stroke-linejoin="round" transform="translate(0 .5)"/><path d="M16.05 10.55q-3.2-3.6-6.2-3.55" fill="none" stroke="#0c335a" stroke-linecap="round" stroke-linejoin="round" transform="translate(0 .5)"/><path d="M10.25 5.3q-.4-1.65-1.9-2.25L4.2 1.35h.05q1.9.25 3.5 1.1l.75.4q1.6.85 1.75 2.45m-6.8-4.25L1.7.3l.2-.05 1.55.8" fill="#cd0101" fill-rule="evenodd" transform="translate(0 .5)"/><path d="m10.25 5.3-.05.7.15.35v.05l-.1.25-.15.15-.45.05-.75-.35Q7.55 5.8 6 5.6l-.4-.15q-2.05-1-4.2-1.65l-.65.7-.3-.05q-.75-.6-.1-1.55-.2-.75.15-1.4Q.9.6 1.7.3l1.75.75.2.1.55.2 4.15 1.7q1.5.6 1.9 2.25" fill="#18aefe" fill-rule="evenodd" transform="translate(0 .5)"/><path d="M10.25 5.3q-.4-1.65-1.9-2.25L4.2 1.35l-.75-.3L1.7.3.95 0m9.3 6.65.1-.25v-.05l-.1-1.05Z" fill="none" stroke="#0c335a" stroke-linecap="round" stroke-linejoin="round" transform="translate(0 .5)"/><path d="M10.35 11.95V15l-.8.75-2.7-2.55 2.45-2.25-2.5-2.4 2.35-2.1 1.15 1.1v1.4l.1.5v.6l-1.1.9 1.05 1m0 4.5-.05 2.9-.1.1-.2-.05-.65-.2-.7-.3-1.15-1.05 2.05-2.1.8.7m-3.2 1.8-.9-.55-2.05-1.6.7-.85 2.6 2.6-.35.4m-5.1-4.85q-.8-1.3-1.25-2.6l1.75 2-.5.6M.5 9.9l-.1-.35L.1 8.1 0 6.85l.1-1.1 2 2.45L4.45 6 2.2 3.25.1 5.05q.05-1.8 1-2.65l.1.1.6.25.4.5.3-.25 3.75 1.55L4.45 6 6.8 8.55 4.45 10.8 2.1 8.2.5 9.9m7.6-4.55L9.7 6l-.55.45-1.05-1.1m-3.2 9.9L2.55 12.8l1.9-2 2.4 2.4-1.95 2.05" fill-rule="evenodd" transform="translate(0 .5)"/><path d="m10.4 10.05-.05 1.9-1.05-1 1.1-.9M10.35 15v1.45l-.8-.7-2.05 2.1 1.15 1.05H8.6l-1.45-.65.35-.4-2.6-2.6-.7.85-.3-.3-1.65-2.1-.15-.2-.05-.1.5-.6-1.75-2-.1-.2-.2-.7 1.6-1.7 2.35 2.6L6.8 8.55 4.45 6l1.8-1.45 1.85.8 1.05 1.1L9.7 6l.6.25v1.3l-1.15-1.1-2.35 2.1 2.5 2.4-2.45 2.25 2.7 2.55.8-.75m-.05 4.35v.15l-.1-.05.1-.1M.1 5.75v-.7l2.1-1.8L4.45 6 2.1 8.2l-2-2.45m1.7-3 .7.25-.3.25-.4-.5m3.1 12.5 1.95-2.05-2.4-2.4-1.9 2 2.35 2.45" fill="#18aefe" fill-rule="evenodd" transform="translate(0 .5)"/><path d="m.8 2.2 9.55 3.85-.05 13.45" fill="none" stroke="#0c335a" stroke-linecap="round" stroke-linejoin="round" transform="translate(0 .5)"/></g></defs></svg>

<?xml version="1.0" encoding="UTF-8" standalone="no"?>
<svg xmlns:xlink="http://www.w3.org/1999/xlink" height="82.0px" width="84.85px" xmlns="http://www.w3.org/2000/svg">
  <g transform="matrix(1.0, 0.0, 0.0, 1.0, 37.4, 42.25)">
    <use height="38.0" transform="matrix(1.0, 0.0, 0.0, 1.0, -11.95, -17.45)" width="32.05" xlink:href="#sprite0"/>
    <use height="38.95" transform="matrix(1.0, 0.0, 0.0, 1.0, -12.45, -17.95)" width="33.05" xlink:href="#sprite1"/>
    <use height="20.7" transform="matrix(1.0, 0.0, 0.0, 1.0, -11.9, -0.3)" width="16.55" xlink:href="#sprite2"/>
    <use height="20.7" transform="matrix(-1.0, 0.0, 0.0, 1.0, 20.3, -0.3)" width="16.55" xlink:href="#sprite2"/>
  </g>
  <defs>
    <g id="sprite0" transform="matrix(1.0, 0.0, 0.0, 1.0, -0.05, 0.0)">
      <use height="38.0" transform="matrix(1.0, 0.0, 0.0, 1.0, 0.05, 0.0)" width="32.05" xlink:href="#shape0"/>
    </g>
    <g id="shape0" transform="matrix(1.0, 0.0, 0.0, 1.0, -0.05, 0.0)">
      <path d="M27.35 7.4 Q29.5 11.55 30.9 16.15 32.35 20.85 32.05 25.65 31.7 30.6 27.85 33.75 24.05 36.95 19.1 37.8 L16.5 38.0 Q12.9 38.0 9.45 36.85 4.8 35.25 2.35 31.35 -0.2 27.4 0.05 23.0 0.25 18.6 2.05 13.7 3.85 8.75 7.0 5.05 10.1 1.3 14.7 0.1 L16.5 0.0 Q18.4 0.05 20.2 0.8 24.95 2.85 27.35 7.4" fill="#ffffff" fill-rule="evenodd" stroke="none"/>
    </g>
    <g id="sprite1" transform="matrix(1.0, 0.0, 0.0, 1.0, 0.45, 0.5)">
      <use height="38.95" transform="matrix(1.0, 0.0, 0.0, 1.0, -0.45, -0.5)" width="33.05" xlink:href="#shape1"/>
    </g>
    <g id="shape1" transform="matrix(1.0, 0.0, 0.0, 1.0, 0.45, 0.5)">
      <path d="M27.35 7.4 Q24.95 2.85 20.2 0.8 17.55 -0.3 14.7 0.1 10.1 1.3 7.0 5.05 3.85 8.75 2.05 13.7 0.25 18.6 0.05 23.0 -0.2 27.4 2.35 31.35 4.8 35.25 9.45 36.85 14.1 38.4 19.1 37.8 24.05 36.95 27.85 33.75 31.7 30.6 32.05 25.65 32.35 20.85 30.9 16.15 29.5 11.55 27.35 7.4 Z" fill="none" stroke="#000000" stroke-linecap="round" stroke-linejoin="round" stroke-width="1.0"/>
    </g>
    <g id="sprite2" transform="matrix(1.0, 0.0, 0.0, 1.0, 0.0, 0.5)">
      <use height="20.7" transform="matrix(1.0, 0.0, 0.0, 1.0, 0.0, -0.5)" width="16.55" xlink:href="#shape2"/>
    </g>
    <g id="shape2" transform="matrix(1.0, 0.0, 0.0, 1.0, 0.0, 0.5)">
      <path d="M16.05 11.0 L16.1 10.95 16.2 10.8 16.2 13.8 15.25 13.6 14.6 13.85 12.1 14.6 11.8 14.8 8.25 15.7 8.25 15.75 8.5 15.9 8.6 16.0 8.65 16.0 Q12.35 16.65 16.05 15.95 L16.2 16.0 16.2 20.2 Q0.15 19.4 0.05 5.1 L9.9 6.85 Q14.1 7.4 16.05 11.0 M9.35 15.75 L9.35 15.8 9.1 15.75 9.35 15.75" fill="#3dc9fe" fill-rule="evenodd" stroke="none"/>
      <path d="M16.2 16.0 L16.05 15.95 Q12.35 16.65 8.65 16.0 L8.6 16.0 8.5 15.9 8.25 15.75 8.25 15.7 11.8 14.8 12.1 14.6 14.6 13.85 15.25 13.6 16.2 13.8 16.2 16.0 M9.35 15.75 L9.1 15.75 9.35 15.8 9.35 15.75" fill="#02a4cc" fill-rule="evenodd" stroke="none"/>
      <path d="M16.1 10.95 L16.05 11.0" fill="none" stroke="#fd7b7b" stroke-linecap="round" stroke-linejoin="round" stroke-width="0.05"/>
      <path d="M7.9 15.45 Q12.5 15.3 15.75 13.5" fill="none" stroke="#028ea2" stroke-linecap="round" stroke-linejoin="round" stroke-width="1.0"/>
      <path d="M16.05 10.55 Q12.85 6.95 9.85 7.0" fill="none" stroke="#0c335a" stroke-linecap="round" stroke-linejoin="round" stroke-width="1.0"/>
      <path d="M10.25 5.3 Q9.85 3.65 8.35 3.05 L4.2 1.35 4.25 1.35 Q6.15 1.6 7.75 2.45 L8.5 2.85 Q10.1 3.7 10.25 5.3 M3.45 1.05 L1.7 0.3 1.9 0.25 3.45 1.05" fill="#cd0101" fill-rule="evenodd" stroke="none"/>
      <path d="M10.25 5.3 L10.2 6.0 10.35 6.35 10.35 6.4 10.25 6.65 10.1 6.8 9.65 6.85 8.9 6.5 Q7.55 5.8 6.0 5.6 L5.6 5.45 Q3.55 4.45 1.4 3.8 L0.75 4.5 0.45 4.45 Q-0.3 3.85 0.35 2.9 0.15 2.15 0.5 1.5 0.9 0.6 1.7 0.3 L3.45 1.05 3.65 1.15 4.2 1.35 8.35 3.05 Q9.85 3.65 10.25 5.3" fill="#18aefe" fill-rule="evenodd" stroke="none"/>
      <path d="M10.25 5.3 Q9.85 3.65 8.35 3.05 L4.2 1.35 3.45 1.05 1.7 0.3 0.95 0.0 M10.25 6.65 L10.35 6.4 10.35 6.35 10.25 5.3 Z" fill="none" stroke="#0c335a" stroke-linecap="round" stroke-linejoin="round" stroke-width="1.0"/>
      <path d="M10.35 11.95 L10.35 15.0 9.55 15.75 6.85 13.2 9.3 10.95 6.8 8.55 9.15 6.45 10.3 7.55 10.3 8.95 10.4 9.45 10.4 10.05 9.3 10.95 10.35 11.95 M10.35 16.45 L10.3 19.35 10.2 19.45 10.0 19.4 9.35 19.2 8.65 18.9 7.5 17.85 9.55 15.75 10.35 16.45 M7.15 18.25 L6.25 17.7 4.2 16.1 4.9 15.25 7.5 17.85 7.15 18.25 M2.05 13.4 Q1.25 12.1 0.8 10.8 L2.55 12.8 2.05 13.4 M0.5 9.9 L0.4 9.55 0.1 8.1 0.0 6.85 0.1 5.75 2.1 8.2 4.45 6.0 2.2 3.25 0.1 5.05 Q0.15 3.25 1.1 2.4 L1.2 2.5 1.8 2.75 2.2 3.25 2.5 3.0 6.25 4.55 4.45 6.0 6.8 8.55 4.45 10.8 2.1 8.2 0.5 9.9 M8.1 5.35 L9.7 6.0 9.15 6.45 8.1 5.35 M4.9 15.25 L2.55 12.8 4.45 10.8 6.85 13.2 4.9 15.25" fill="#000000" fill-rule="evenodd" stroke="none"/>
      <path d="M10.4 10.05 L10.35 11.95 9.3 10.95 10.4 10.05 M10.35 15.0 L10.35 16.45 9.55 15.75 7.5 17.85 8.65 18.9 8.6 18.9 7.15 18.25 7.5 17.85 4.9 15.25 4.2 16.1 3.9 15.8 2.25 13.7 2.1 13.5 2.05 13.4 2.55 12.8 0.8 10.8 0.7 10.6 0.5 9.9 2.1 8.2 4.45 10.8 6.8 8.55 4.45 6.0 6.25 4.55 8.1 5.35 9.15 6.45 9.7 6.0 10.3 6.25 10.3 7.55 9.15 6.45 6.8 8.55 9.3 10.95 6.85 13.2 9.55 15.75 10.35 15.0 M10.3 19.35 L10.3 19.5 10.2 19.45 10.3 19.35 M0.1 5.75 L0.1 5.6 0.1 5.05 2.2 3.25 4.45 6.0 2.1 8.2 0.1 5.75 M1.8 2.75 L2.5 3.0 2.2 3.25 1.8 2.75 M4.9 15.25 L6.85 13.2 4.45 10.8 2.55 12.8 4.9 15.25" fill="#18aefe" fill-rule="evenodd" stroke="none"/>
      <path d="M0.8 2.2 L10.35 6.05 10.3 19.5" fill="none" stroke="#0c335a" stroke-linecap="round" stroke-linejoin="round" stroke-width="1.0"/>
    </g>
  </defs>
</svg>
